!!!OTL@@DE: Treuer Tod
!!!COM: Choron, Alexandre Etienne
!!!ODT: 1806
!!!OPR: La Sentinelle
!!!OMD: Andante con moto
!!!LYR: K&ouml;rner, Th.
!!!LDT: 1813
!!!OCL: Erk, Ludwig
!!!GCO: Deutscher Liederschatz, Band 1
**kern	**kern	**kern
*staff3	*staff2	*staff1
*Ipiano	*Ipiano	*Ivox
*clefF4	*clefG2	*clefG2
*k[]	*k[]	*k[]
*C:	*C:	*C:
*met(C)	*met(C)	*met(C)
*M4/4	*M4/4	*M4/4
*MM104	*MM104	*MM104
8r	8r	8cc\
4r	4r	8.dd\
.	.	16ee\
=1	=1	=1
8CC/ 8C/L	8G/ 8c/ 8e/L	4.g/
8r	8r	.
8CC/ 8C/J	8G/ 8c/ 8e/J	.
8r	8r	8a/
8CC/ 8C/L	8G/ 8B/ 8f/L	8.g/
8r	8r	.
.	.	16f/
8CC/ 8C/J	8G/ 8B/ 8f/J	8.d/
8r	8r	.
.	.	16e/
=2	=2	=2
8CC/ 8C/L	8G/ 8c/ 8e/L	2c/
8r	8r	.
8CC/ 8C/J	8G/ 8c/ 8e/J	.
8r	8r	.
8CC/ 8C/	8G/ 8c/ 8e/	8r
8r	8r	8g/
4r	4r	8.cc\
.	.	16dd\
=3	=3	=3
8CC/ 8C/L	8G/ 8c/ 8e/L	4.ee\
8r	8r	.
8CC/ 8C/J	8G/ 8c/ 8e/J	.
8r	8r	8dd\
8CC/ 8C/L	8G/ 8c/ 8e/L	8.cc\
8r	8r	.
.	.	16dd\
8CC/ 8C/J	8G/ 8c/ 8e/J	8.ee\
8r	8r	.
.	.	16ff\
=4	=4	=4
8GGG/ 8GG/L	8G/ 8B/ 8d/L	4dd\
8r	8r	.
8GGG/ 8GG/J	8G/ 8B/ 8d/J	4g/
8r	8r	.
8GGG/ 8GG/	8G/ 8B/ 8d/	8r
8r	8r	8cc\
4r	4r	8.dd\
.	.	16ee\
=5	=5	=5
8D\L	8A/ 8c/ 8f#/L	4.f#/
8r	8r	.
8D\J	8A/ 8c/ 8f#/J	.
8r	8r	8a/
8D\L	8A/ 8c/ 8f#/L	8.g/
8r	8r	.
.	.	16f#/
8D\J	8A/ 8c/ 8f#/J	8.e/
8r	8r	.
.	.	16d/
=6	=6	=6
8GG/L	8B/ 8g/L	8.g/
8r	8r	.
.	.	16a/
8GG/J	8B/ 8g/J	8.b\
8r	8r	.
.	.	16cc\
8BB/L	8d/ 8g/L	8.dd\
8r	8r	.
.	.	16ee\
8BB/J	8d/ 8g/J	8.dd\
8r	8r	.
.	.	16cc\
=7	=7	=7
8C/L	8c/ 8e/ 8a/L	(8cc\L
8r	8r	8b\J)
8C/J	8c/ 8e/ 8a/J	(8.a/L
8r	8r	.
.	.	16g/Jk)
8D\L	8B/ 8d/ 8g/L	(4g/
8r	8r	.
8D\J	8c/ 8d/ 8f#/J	4a/)
8r	8r	.
=8	=8	=8
8GG/L	8B/ 8d/ 8g/L	2g/
8r	8r	.
8GG/J	8B/ 8d/ 8g/J	.
8r	8r	.
8GG/	8B/ 8d/ 8g/	8r
8r	8r	8g/
4r	4r	8.dd\
.	.	16cc\
=9	=9	=9
8GGG/ 8GG/L	8G/ 8d/ 8fn/L	4.b\
8r	8r	.
8GGG/ 8GG/J	8G/ 8d/ 8f/J	.
8r	8r	8a/
8GGG/ 8GG/L	8G/ 8B/ 8f/L	(8g\L
8r	8r	8ff\J)
8GGG/ 8GG/J	8G/ 8B/ 8f/J	(8ee\L
8r	8r	8dd\J)
=10	=10	=10
8CC/ 8C/L	8G/ 8c/ 8e/L	2cc\
8r	8r	.
8CC/ 8C/J	8G/ 8c/ 8e/J	.
8r	8r	.
8CC/ 8C/	8G/ 8c/ 8e/	8r
8r	8r	8g/
4r	4r	8.ee\
.	.	16dd\
=11	=11	=11
8CC/ 8C/L	8G/ 8c/ 8e/L	4.cc\
8r	8r	.
8CC/ 8C/J	8G/ 8c/ 8e/J	.
8r	8r	8cc\
8CC/ 8C/L	8G/ 8c/ 8e/L	(8ff\L
8r	8r	8ee\J)
8CC/ 8C/J	8G/ 8c/ 8e/J	(8dd\L
8r	8r	8cc\J)
=12	=12	=12
4.GGG;/ 4.GG;/	4.G;/ 4.B;/ 4.d;/	[4dd;\
.	.	8dd\]
8r	8r	8r
8CC\ 8C\L	8g\ 8cc\ 8ee\L	4ee\
8r	8r	.
8c\ 8e\J	8g\ 8cc\ 8ee\J	8.ff\
8r	8r	.
.	.	16ee\
=13	=13	=13
8GGG/ 8GG/L	8g\ 8b\ 8dd\L	8.dd\
8r	8r	.
.	.	16dd\
8G/ 8d/J	8g\ 8b\ 8dd\J	8.gg\
8r	8r	.
.	.	16b\
8AAA/ 8AA/L	8e/ 8a/ 8cc/L	8.cc\
8r	8r	.
.	.	16cc\
8A/ 8c/J	8e/ 8a/ 8cc/J	8.dd\
8r	8r	.
.	.	16cc\
=14	=14	=14
8EE/ 8E/L	8e/ 8g#/ 8b/L	8.b\
8r	8r	.
.	.	16b\
8E/ 8B/J	8e/ 8g#/ 8b/J	8.ee\
8r	8r	.
.	.	16g#/
8FF/ 8F/L	8c/ 8f/ 8a/L	8.a/
8r	8r	.
.	.	16cc\
8F/ 8A/J	8c/ 8f/ 8a/J	8.b\
8r	8r	.
.	.	16a/
=15	=15	=15
8CC/ 8C/	8c/ 8e/ 8gn/	8gn/
8r	8r	8cc\
4r	4r	8b\
.	.	8cc\
2GGG^/ 2GG^/	2G/ 2B/ 2f/	(4dd\
.	.	4g/)
=16	=16	=16
4.CC/ 4.C/	4.G/ 4.c/ 4.e/	4.ee\
8r	8r	8r
8CC\ 8C\L	8g\ 8cc\ 8ee\L	4ee\
8r	8r	.
8c\ 8e\J	8g\ 8cc\ 8ee\J	8.ff\
8r	8r	.
.	.	16ee\
=17	=17	=17
8GGG/ 8GG/L	8g\ 8b\ 8dd\L	8.dd\
8r	8r	.
.	.	16dd\
8G/ 8d/J	8g\ 8b\ 8dd\J	8.gg\
8r	8r	.
.	.	16b\
8AAA/ 8AA/L	8e/ 8a/ 8cc/L	8.cc\
8r	8r	.
.	.	16cc\
8A/ 8c/J	8e/ 8a/ 8cc/J	8.dd\
8r	8r	.
.	.	16cc\
=18	=18	=18
8EE/ 8E/L	8e/ 8g#/ 8b/L	8.b\
8r	8r	.
.	.	16b\
8E/ 8B/J	8e/ 8g#/ 8b/J	8.ee\
8r	8r	.
.	.	16g#/
8FF/ 8F/L	8c/ 8f/ 8a/L	8.a/
8r	8r	.
.	.	16cc\
8F/ 8A/J	8c/ 8f/ 8a/J	8.b\
8r	8r	.
.	.	16a/
=19	=19	=19
8CC/ 8C/	8c/ 8e/ 8gn/	8.gn/
8r	8r	.
.	.	16cc\
4r	4r	8.b\
.	.	16cc\
2GGG/ 2GG/	2G/ 2B/ 2f/	(4dd\
.	.	4g/)
=20	=20	=20
8CC/ 8C/	8G/ 8c/ 8e/	8.ee\
8r	8r	.
.	.	16ff\
(4F\	(4c/ 4a/	8.a/
.	.	16dd\
4G\	4e/ 4g/	(4cc\
4GG/)	4f/) 4g/ 4b/	4dd\)
=21	=21	=21
4CC/ 4C/	4e/ 4g/ 4cc/	2cc\
4G\	8.g/L	.
.	16g/Jk	.
4BB\ 4B\	4g\ 4dd\ 4ff\	2r
4G\	8.g/L	.
.	16g/Jk	.
=22	=22	=22
4C\ 4c\	4e/ 4g/ 4cc/ 4ee/	1r
4AA\ 4A\	8.e/ 8.a/ 8.cc/L	.
.	16e/ 16a/ 16cc/Jk	.
4FF/ 4F/	8.f/ 8.a/ 8.dd/L	.
.	16f/ 16a/ 16dd/Jk	.
4GG/ 4G/	8.d/ 8.g/ 8.b/L	.
.	16d/ 16g/ 16b/Jk	.
=23	=23	=23
4CC/ 4C/	8e/ 8g/ 8cc/L	1r
.	16g/L	.
.	16g/JJ	.
4G\	8g/L	.
.	8g/J	.
4BB\ 4B\	8g\ 8dd\ 8ff\L	.
.	16g\L	.
.	16g\JJ	.
4G\	8g/L	.
.	8g/J	.
=24	=24	=24
4C\ 4c\	4e/ 4g/ 4cc/ 4ee/	1r
8.AA\ 8.A\L	8.e/ 8.a/ 8.cc/L	.
16AA\ 16A\Jk	16e/ 16a/ 16cc/Jk	.
8.FF/ 8.F/L	8.f/ 8.a/ 8.dd/L	.
16FF/ 16F/Jk	16f/ 16a/ 16dd/Jk	.
8.GG/ 8.G/L	8.d/ 8.g/ 8.b/L	.
16GG/ 16G/Jk	16d/ 16g/ 16b/Jk	.
=25	=25	=25
8CC/ 8C/L	8e/ 8g/ 8cc/L	2r
8r	8r	.
8C/ 8c/J	8e/ 8g/ 8cc/ 8ee/J	.
8r	8r	.
8CC/ 8C/	8c/	8r
==	==	==
*-	*-	*-
!!!ENC: Craig Stuart Sapp
!!!END: 2004/06/01/
!!!EFL: 131/650
